X:505
T: Mill of Kylemore
C: Josie McDermott
Z: A.Pickering
R: reel
M: 4/4
L: 1/8
K: G
E|DGGF GABG|AGFG AB (3cBA|G2 GF GABd|cAFA G2 GF|
DG G2 BGAG|FGAB (3cBA Bc|d2 eg fdcA|(3Bcd cA G3:|
B|dg g2 bg g2|abag fdcA|Bgfg egdB|GBAG FDBc|
dg g2 bg g2|abag fdcA|1 d2 eg fdcA|(3Bcd cA G3:|
|2 defa gfdc|(3Bcd cA G3||
